usr/share/icons/biglinux-icons-material/scalable/apps/gnome-layout-switcher.svg

<?xml version="1.0" encoding="UTF-8" standalone="no"?>
<svg
   width="24"
   height="24"
   viewBox="0 0 24 24"
   fill="none"
   version="1.1"
   id="svg154"
   sodipodi:docname="gnome-layout-switcher.svg"
   inkscape:version="1.2.2 (b0a8486541, 2022-12-01)"
   xml:space="preserve"
   xmlns:inkscape="http://www.inkscape.org/namespaces/inkscape"
   xmlns:sodipodi="http://sodipodi.sourceforge.net/DTD/sodipodi-0.dtd"
   xmlns:xlink="http://www.w3.org/1999/xlink"
   xmlns="http://www.w3.org/2000/svg"
   xmlns:svg="http://www.w3.org/2000/svg"
   xmlns:sketch="http://www.bohemiancoding.com/sketch/ns"><sodipodi:namedview
     id="namedview156"
     pagecolor="#ffffff"
     bordercolor="#000000"
     borderopacity="1"
     inkscape:showpageshadow="0"
     inkscape:pageopacity="1"
     inkscape:pagecheckerboard="false"
     inkscape:deskcolor="#ffffff"
     showgrid="true"
     inkscape:zoom="32"
     inkscape:cx="11.484375"
     inkscape:cy="14.078125"
     inkscape:window-width="1920"
     inkscape:window-height="1052"
     inkscape:window-x="0"
     inkscape:window-y="0"
     inkscape:window-maximized="1"
     inkscape:current-layer="svg154"
     showguides="true"
     guidecolor="#ff0000"
     guideopacity="1"
     inkscape:lockguides="true"
     showborder="true"
     borderlayer="true"><inkscape:grid
       type="xygrid"
       id="grid356"
       color="#000000"
       opacity="0.10196078"
       empcolor="#000000"
       empopacity="0.10196078"
       snapvisiblegridlinesonly="true"
       enabled="true"
       visible="true"
       dotted="false" /><sodipodi:guide
       position="4.003125,23.042969"
       orientation="1,0"
       id="guide764"
       inkscape:locked="true" /><sodipodi:guide
       position="5.0007813,21.049219"
       orientation="1,0"
       id="guide2218"
       inkscape:locked="true" /><sodipodi:guide
       position="3.6445312,20"
       orientation="0,-1"
       id="guide2220"
       inkscape:locked="true" /><sodipodi:guide
       position="3.796875,5"
       orientation="0,-1"
       id="guide2222"
       inkscape:locked="true" /><sodipodi:guide
       position="3.625,4"
       orientation="0,-1"
       id="guide2224"
       inkscape:locked="true" /><sodipodi:guide
       position="19,4.8984375"
       orientation="1,0"
       id="guide2226"
       inkscape:locked="true" /><sodipodi:guide
       position="20,3.3312502"
       orientation="1,0"
       id="guide2228"
       inkscape:locked="true" /><sodipodi:guide
       position="22.875,19"
       orientation="0,-1"
       id="guide2230"
       inkscape:locked="true" /></sodipodi:namedview><defs
     id="defs152"><radialGradient
       id="radialGradient1281"
       cx="0"
       cy="0"
       r="1"
       gradientUnits="userSpaceOnUse"
       gradientTransform="translate(12 1) rotate(90) scale(22)"><stop
         stop-color="#8FC8FF"
         id="stop1277"
         offset="0.00424011"
         style="stop-color:#314149;stop-opacity:1;" /><stop
         offset="0.99151897"
         stop-color="#0056A8"
         id="stop1279"
         style="stop-color:#314149;stop-opacity:1;" /></radialGradient><radialGradient
       id="paint0_radial_29_23"
       cx="0"
       cy="0"
       r="1"
       gradientUnits="userSpaceOnUse"
       gradientTransform="translate(12 1) rotate(90) scale(22)"><stop
         stop-color="#8FC8FF"
         id="stop147"
         offset="0"
         style="stop-color:#f6f6f6;stop-opacity:1;" /><stop
         offset="1"
         stop-color="#0056A8"
         id="stop149"
         style="stop-color:#cfcfcf;stop-opacity:1;" /></radialGradient><radialGradient
       inkscape:collect="always"
       xlink:href="#radialGradient1281"
       id="radialGradient1161"
       gradientUnits="userSpaceOnUse"
       gradientTransform="matrix(3.9045581e-8,90.059469,-90.006811,0,-107.36954,-11.19048)"
       cx="0.17911513"
       cy="-1.7483425"
       r="1"
       fx="0.17911513"
       fy="-1.7483425" /><radialGradient
       id="paint0_radial_10_2"
       cx="0"
       cy="0"
       r="1"
       gradientUnits="userSpaceOnUse"
       gradientTransform="matrix(-10.999959,21.999967,-21.999967,-10.999959,17.5,1)"
       xlink:href="#paint0_radial_29_23"><stop
         stop-color="#777777"
         id="stop2847" /><stop
         offset="1"
         stop-color="#222222"
         id="stop2849" /></radialGradient><linearGradient
       x1="12"
       y1="1"
       x2="12"
       y2="23"
       gradientUnits="userSpaceOnUse"
       gradientTransform="matrix(0.75,0,0,0.75,-7.98374e-6,2.65834e-5)"
       spreadMethod="pad"
       id="linearGradient44915"><stop
         style="stop-opacity:1;stop-color:#ff5f5f"
         offset="0"
         id="stop44911" /><stop
         style="stop-opacity:1;stop-color:#e82e34"
         offset="1"
         id="stop44913" /></linearGradient><radialGradient
       id="SVGID_1_"
       cx="85.226997"
       cy="71.662003"
       r="47.776001"
       gradientTransform="matrix(1,0,0,-1,0,103.8)"
       gradientUnits="userSpaceOnUse"><stop
         offset="0"
         stop-color="#00aeff"
         id="stop12" /><stop
         offset=".131"
         stop-color="#00a5f7"
         id="stop14" /><stop
         offset=".345"
         stop-color="#008de0"
         id="stop16" /><stop
         offset=".616"
         stop-color="#0065ba"
         id="stop18" /><stop
         offset=".928"
         stop-color="#002f87"
         id="stop20" /><stop
         offset="1"
         stop-color="#00217a"
         id="stop22" /></radialGradient><linearGradient
       id="SVGID_3_"
       gradientUnits="userSpaceOnUse"
       x1="92.800003"
       y1="72.949997"
       x2="130.763"
       y2="72.949997"
       gradientTransform="matrix(1,0,0,-1,0,103.8)"><stop
         offset="0"
         stop-color="#FFF"
         id="stop29" /><stop
         offset="1"
         stop-color="#FFF"
         stop-opacity="0"
         id="stop31" /></linearGradient><radialGradient
       id="SVGID_4_"
       cx="83.728996"
       cy="73.999001"
       r="8.2860003"
       gradientTransform="matrix(1,0,0,-1,0,103.8)"
       gradientUnits="userSpaceOnUse"><stop
         offset="0"
         stop-color="#FFF"
         id="stop36" /><stop
         offset=".679"
         stop-color="#7a7a7a"
         id="stop38" /><stop
         offset="1"
         stop-color="#404040"
         id="stop40" /></radialGradient><radialGradient
       fx="0"
       fy="0"
       cx="0"
       cy="0"
       r="1"
       gradientUnits="userSpaceOnUse"
       gradientTransform="matrix(0,16.5,-16.5,0,8.999996,0.750012)"
       spreadMethod="pad"
       id="radialGradient3666-6"><stop
         style="stop-color:#ffffff;stop-opacity:1;"
         offset="0"
         id="stop3662-7" /><stop
         style="stop-color:#f7da4d;stop-opacity:1;"
         offset="1"
         id="stop3664-5" /></radialGradient><clipPath
       id="a"><path
         d="M 0,0.113 H 91.887 V 92 H 0 Z m 0,0"
         id="path76179" /></clipPath><clipPath
       id="a-3"><path
         d="M 0,0.113 H 91.887 V 92 H 0 Z m 0,0"
         id="path76179-5" /></clipPath></defs><path
     d="M 50,5 C 9.0909092,5 5,25.454546 5,50 5,82.727274 17.272728,95 50,95 82.727274,95 95,82.727274 95,50 95,25.454546 90.909093,5 50,5 Z"
     sketch:type="MSShapeGroup"
     id="path6"
     style="font-variation-settings:normal;display:inline;opacity:1;vector-effect:none;fill:url(#radialGradient1161);fill-opacity:1;stroke-width:4.56656;stroke-linecap:butt;stroke-linejoin:miter;stroke-miterlimit:4;stroke-dasharray:none;stroke-dashoffset:0;stroke-opacity:1;-inkscape-stroke:none;stop-color:#000000;stop-opacity:1"
     sodipodi:nodetypes="sssss"
     inkscape:label="Shape"
     transform="matrix(0.24444444,0,0,0.24444444,-0.22222222,-0.22222222)"
     sodipodi:insensitive="true" /><g
     inkscape:groupmode="layer"
     id="layer4"
     inkscape:label="Colors References"
     style="display:inline"
     sodipodi:insensitive="true"
     inkscape:highlight-color="#cc5ecc"><rect
       style="display:inline;fill:#3947be;fill-opacity:1;stroke-width:22.6872;paint-order:markers stroke fill"
       id="rect7816"
       width="1.9999923"
       height="2"
       x="12"
       y="-2.9999964"
       rx="0"
       ry="0"
       inkscape:label="Dark Blue" /><rect
       style="display:inline;fill:#6c7ad8;fill-opacity:1;stroke-width:22.6873;paint-order:markers stroke fill"
       id="rect7820"
       width="2"
       height="2.0000076"
       x="9"
       y="-3.0000041"
       rx="0"
       ry="0"
       inkscape:label="Blue" /><rect
       style="display:inline;fill:#33cc33;fill-opacity:1;stroke-width:22.6873;paint-order:markers stroke fill"
       id="rect7814"
       width="2"
       height="2.0000076"
       x="6"
       y="-3.0000041"
       rx="0"
       ry="0"
       inkscape:label="Green" /><rect
       style="display:inline;fill:#ffc328;fill-opacity:1;stroke-width:22.6872;paint-order:markers stroke fill"
       id="rect7824"
       width="1.9999926"
       height="2.0000002"
       x="3"
       y="-2.9999964"
       rx="0"
       ry="0"
       inkscape:label="Yellow" /><rect
       style="display:inline;fill:#cc5e55;fill-opacity:1;stroke-width:22.6873;paint-order:markers stroke fill"
       id="rect7822"
       width="2"
       height="2.0000076"
       x="0"
       y="-3.0000038"
       rx="0"
       ry="0"
       inkscape:label="Red" /><rect
       style="display:inline;fill:#0bb1cb;fill-opacity:1;stroke-width:22.6872;paint-order:markers stroke fill"
       id="rect3087"
       width="1.9999919"
       height="1.9999996"
       x="-3"
       y="12.000004"
       rx="0"
       ry="0"
       inkscape:label="Blue 4" /><rect
       style="display:inline;fill:#2a92c9;fill-opacity:1;stroke-width:22.6873;paint-order:markers stroke fill"
       id="rect3085"
       width="2"
       height="2.0000079"
       x="-3"
       y="8.9999962"
       rx="0"
       ry="0"
       inkscape:label="Blue 3" /><rect
       style="display:inline;fill:#006699;fill-opacity:1;stroke-width:22.6873;paint-order:markers stroke fill"
       id="rect3089"
       width="2"
       height="2.0000076"
       x="-3"
       y="6.0000038"
       rx="0"
       ry="0"
       inkscape:label="Blue 2" /><rect
       style="display:inline;fill:#002a44;fill-opacity:1;stroke-width:22.6873;paint-order:markers stroke fill"
       id="rect3083"
       width="2"
       height="2.0000076"
       x="-3"
       y="2.9999962"
       rx="0"
       ry="0"
       inkscape:label="Blue 1" /><rect
       style="display:inline;fill:#2c2d3d;fill-opacity:1;stroke-width:22.6873;paint-order:markers stroke fill"
       id="rect3456"
       width="2"
       height="2.0000076"
       x="-3"
       y="-3.8146973e-06"
       rx="0"
       ry="0"
       inkscape:label="Gray" /><rect
       style="display:inline;fill:#16171c;fill-opacity:1;stroke-width:22.6872;paint-order:markers stroke fill"
       id="rect3091"
       width="1.9999924"
       height="2"
       x="-3"
       y="-3"
       rx="0"
       ry="0"
       inkscape:label="Black" /></g><path
     d="M 16.679096,7.4110277 A 0.41049034,0.41049034 0 0 0 16.398112,7.5335979 L 13.983735,9.9734132 A 2.9150596,2.9150596 0 0 0 11.952098,9.1478084 2.9393421,2.9393421 0 0 0 9.0208493,12.079055 c 0,0.518027 0.1364469,1.003678 0.3734894,1.425731 L 7.2840714,15.615053 5.6825805,14.215917 a 0.41049034,0.41049034 0 0 0 -0.5793121,0.03816 0.41049034,0.41049034 0 0 0 0.037004,0.580468 l 1.8905685,1.652369 a 0.41049034,0.41049034 0 0 0 0.561967,-0.0185 l 2.304528,-2.304528 c 0.5307471,0.521497 1.2557541,0.844108 2.0547651,0.844108 a 2.9347168,2.9347168 0 0 0 2.928934,-2.928935 c 0,-0.528434 -0.143382,-1.023336 -0.389677,-1.452327 a 0.41049034,0.41049034 0 0 0 0.03238,-0.03006 l 2.18774,-2.2131807 1.609585,1.3910426 a 0.41049034,0.41049034 0 0 0 0.579311,-0.04279 0.41049034,0.41049034 0 0 0 -0.04279,-0.5781555 l -1.89982,-1.641961 a 0.41049034,0.41049034 0 0 0 -0.250918,-0.1006023 0.41049034,0.41049034 0 0 0 -0.02775,0 z m -4.726998,2.5600714 c 1.170186,0 2.10911,0.9389239 2.10911,2.1079549 0,1.170186 -0.938924,2.109111 -2.10911,2.109111 -1.170187,0 -2.1091113,-0.938925 -2.1091113,-2.109111 0,-1.169031 0.9400813,-2.1079549 2.1091113,-2.1079549 z"
     color="#000000"
     fill="#01d3aa"
     style="font-variant-ligatures:normal;font-variant-position:normal;font-variant-caps:normal;font-variant-numeric:normal;font-variant-alternates:normal;font-variant-east-asian:normal;font-feature-settings:normal;font-variation-settings:normal;text-indent:0;text-decoration-line:none;text-decoration-style:solid;text-decoration-color:#000000;text-transform:none;text-orientation:mixed;white-space:normal;shape-padding:0;shape-margin:0;inline-size:0;isolation:auto;mix-blend-mode:normal;stroke-width:1.15631;paint-order:stroke markers fill"
     id="path98556" /></svg>

<svg xmlns="http://www.w3.org/2000/svg" xmlns:xlink="http://www.w3.org/1999/xlink" xml:space="preserve" width="24" height="24" fill="none"><defs><radialGradient id="a" cx="0" cy="0" r="1" gradientTransform="matrix(0 22 -22 0 12 1)" gradientUnits="userSpaceOnUse"><stop offset=".004" stop-color="#8FC8FF" style="stop-color:#314149;stop-opacity:1"/><stop offset=".992" stop-color="#0056A8" style="stop-color:#314149;stop-opacity:1"/></radialGradient><radialGradient id="b" cx="0" cy="0" r="1" gradientTransform="matrix(0 22 -22 0 12 1)" gradientUnits="userSpaceOnUse"><stop offset="0" stop-color="#8FC8FF" style="stop-color:#f6f6f6;stop-opacity:1"/><stop offset="1" stop-color="#0056A8" style="stop-color:#cfcfcf;stop-opacity:1"/></radialGradient><radialGradient xlink:href="#a" id="c" cx=".179" cy="-1.748" r="1" fx=".179" fy="-1.748" gradientTransform="matrix(0 90.05947 -90.00681 0 -107.37 -11.19)" gradientUnits="userSpaceOnUse"/></defs><path d="M50 5C9.09 5 5 25.455 5 50c0 32.727 12.273 45 45 45 32.727 0 45-12.273 45-45 0-24.545-4.09-45-45-45Z" style="font-variation-settings:normal;display:inline;opacity:1;vector-effect:none;fill:url(#c);fill-opacity:1;stroke-width:4.56656;stroke-linecap:butt;stroke-linejoin:miter;stroke-miterlimit:4;stroke-dasharray:none;stroke-dashoffset:0;stroke-opacity:1;-inkscape-stroke:none;stop-color:#000;stop-opacity:1" transform="matrix(.24444 0 0 .24444 -.222 -.222)"/><g style="display:inline"><rect width="2" height="2" x="12" y="-3" rx="0" ry="0" style="display:inline;fill:#3947be;fill-opacity:1;stroke-width:22.6872;paint-order:markers stroke fill"/><rect width="2" height="2" x="9" y="-3" rx="0" ry="0" style="display:inline;fill:#6c7ad8;fill-opacity:1;stroke-width:22.6873;paint-order:markers stroke fill"/><rect width="2" height="2" x="6" y="-3" rx="0" ry="0" style="display:inline;fill:#3c3;fill-opacity:1;stroke-width:22.6873;paint-order:markers stroke fill"/><rect width="2" height="2" x="3" y="-3" rx="0" ry="0" style="display:inline;fill:#ffc328;fill-opacity:1;stroke-width:22.6872;paint-order:markers stroke fill"/><rect width="2" height="2" y="-3" rx="0" ry="0" style="display:inline;fill:#cc5e55;fill-opacity:1;stroke-width:22.6873;paint-order:markers stroke fill"/><rect width="2" height="2" x="-3" y="12" rx="0" ry="0" style="display:inline;fill:#0bb1cb;fill-opacity:1;stroke-width:22.6872;paint-order:markers stroke fill"/><rect width="2" height="2" x="-3" y="9" rx="0" ry="0" style="display:inline;fill:#2a92c9;fill-opacity:1;stroke-width:22.6873;paint-order:markers stroke fill"/><rect width="2" height="2" x="-3" y="6" rx="0" ry="0" style="display:inline;fill:#069;fill-opacity:1;stroke-width:22.6873;paint-order:markers stroke fill"/><rect width="2" height="2" x="-3" y="3" rx="0" ry="0" style="display:inline;fill:#002a44;fill-opacity:1;stroke-width:22.6873;paint-order:markers stroke fill"/><rect width="2" height="2" x="-3" rx="0" ry="0" style="display:inline;fill:#2c2d3d;fill-opacity:1;stroke-width:22.6873;paint-order:markers stroke fill"/><rect width="2" height="2" x="-3" y="-3" rx="0" ry="0" style="display:inline;fill:#16171c;fill-opacity:1;stroke-width:22.6872;paint-order:markers stroke fill"/></g><path fill="#01d3aa" d="M16.68 7.411a.41.41 0 0 0-.282.123l-2.414 2.44a2.915 2.915 0 0 0-2.032-.826 2.94 2.94 0 0 0-2.931 2.931c0 .518.136 1.004.373 1.426l-2.11 2.11-1.601-1.4a.41.41 0 0 0-.58.04.41.41 0 0 0 .037.58l1.89 1.652a.41.41 0 0 0 .563-.019l2.304-2.304c.531.521 1.256.844 2.055.844a2.935 2.935 0 0 0 2.929-2.929c0-.528-.143-1.023-.39-1.452a.41.41 0 0 0 .033-.03l2.187-2.214 1.61 1.392a.41.41 0 0 0 .58-.043.41.41 0 0 0-.043-.578l-1.9-1.642a.41.41 0 0 0-.251-.101.41.41 0 0 0-.028 0zm-4.728 2.56c1.17 0 2.11.939 2.11 2.108 0 1.17-.94 2.11-2.11 2.11s-2.109-.94-2.109-2.11c0-1.169.94-2.108 2.11-2.108z" color="#000" style="font-variant-ligatures:normal;font-variant-position:normal;font-variant-caps:normal;font-variant-numeric:normal;font-variant-alternates:normal;font-variant-east-asian:normal;font-feature-settings:normal;font-variation-settings:normal;text-indent:0;text-decoration-line:none;text-decoration-style:solid;text-decoration-color:#000;text-transform:none;text-orientation:mixed;white-space:normal;shape-padding:0;shape-margin:0;inline-size:0;isolation:auto;mix-blend-mode:normal;stroke-width:1.15631;paint-order:stroke markers fill"/></svg>
